icons/voice-recognition-fill.svg

<svg width="24" height="24" fill="none" xmlns="http://www.w3.org/2000/svg"><g clip-path="url(#a)"><path d="M21 3v18H3V3h18Zm-8 3h-2v12h2V6ZM9 9H7v6h2V9Zm8 0h-2v6h2V9Z" /></g><defs><clipPath id="a"><path fill="#fff" d="M0 0h24v24H0z"/></clipPath></defs></svg>

<svg xmlns="http://www.w3.org/2000/svg" width="24" height="24" fill="none"><g clip-path="url(#a)"><g><path fill="#121212" d="M21 3V21H3V3H21ZM13 6H11V18H13V6ZM9 9H7V15H9V9ZM17 9H15V15H17V9Z"/></g></g><defs><clipPath id="a"><rect width="24" height="24" fill="white"/></clipPath></defs></svg>
